X:5
T:Double Lead Through
Q:1/4=180
M:4/4
L:1/8
Z:abc2nwc
K:G
g4d3B|G2G2GABG|E2E2F2F2|G3A B2d2|
g4d3B|G2G2GABG|E2E2F2F2|G4G4||
A3d ^c2d2|A3d ^c2d2|A2d2e2e2|f8|
A3d ^c2d2|A3d ^c2d2|A2g2f2e2|d2c2B2A2|
G2G2GABG|A2A2ABcA|Bc d2cd e2|e2d2d2ef|
g2g2gf e2|d2d2dc B2|A3B c2d2|egfe dcBA|
G2G2GABG|A2A2ABcA|Bc d2cd e2|e2d2d2ef|
g2g2gf e2|d2d2dc B2|A3B c2d2|e2f2g4|]
